src/frontend/src/images/twitter.svg

<svg width="16" height="14" viewBox="0 0 16 14" fill="none" xmlns="http://www.w3.org/2000/svg">
<path d="M15.7626 2.41942C15.1794 2.67738 14.561 2.84679 13.9277 2.92206C14.5952 2.52287 15.0947 1.89464 15.3333 1.15442C14.7069 1.52719 14.0202 1.78844 13.3044 1.92976C12.8236 1.41535 12.1864 1.07418 11.4917 0.959308C10.797 0.844436 10.0838 0.962292 9.46302 1.29455C8.84223 1.62682 8.3486 2.15487 8.05888 2.79662C7.76915 3.43837 7.69957 4.15786 7.86094 4.84324C6.59068 4.77957 5.348 4.44947 4.21359 3.87437C3.07918 3.29927 2.0784 2.49202 1.27622 1.50504C0.992274 1.99275 0.84306 2.54716 0.843858 3.1115C0.843858 4.21914 1.40761 5.19768 2.26469 5.7706C1.75748 5.75463 1.26142 5.61765 0.817886 5.37108V5.4108C0.818039 6.14849 1.07331 6.86343 1.54041 7.43439C2.00751 8.00535 2.6577 8.39721 3.38073 8.54351C2.90988 8.67111 2.41618 8.68992 1.93698 8.59851C2.14084 9.23348 2.53817 9.7888 3.07334 10.1867C3.60851 10.5846 4.25472 10.8052 4.9215 10.8176C4.25881 11.3381 3.50003 11.7228 2.68856 11.9498C1.87708 12.1768 1.02882 12.2417 0.192261 12.1407C1.65259 13.0798 3.35254 13.5784 5.08879 13.5768C10.9654 13.5768 14.1791 8.70851 14.1791 4.4865C14.1791 4.349 14.1752 4.20997 14.1691 4.074C14.7947 3.62191 15.3345 3.06186 15.7634 2.42018L15.7626 2.41942Z" fill="#3B3A39"/>
</svg>

<svg xmlns="http://www.w3.org/2000/svg" width="16" height="14" fill="none" viewBox="0 0 16 14"><path fill="#3b3a39" d="M15.76 2.42a6 6 0 0 1-1.83.5 3.2 3.2 0 0 0 1.4-1.77q-.94.57-2.03.78a3.2 3.2 0 0 0-5.44 2.91 9 9 0 0 1-6.58-3.33 3.2 3.2 0 0 0 .98 4.26q-.77-.03-1.44-.4v.04a3.2 3.2 0 0 0 2.56 3.13q-.71.2-1.44.06a3.2 3.2 0 0 0 2.98 2.22A6.4 6.4 0 0 1 .2 12.14a9 9 0 0 0 4.9 1.44c5.88 0 9.09-4.87 9.09-9.1l-.01-.4a7 7 0 0 0 1.6-1.66"/></svg>
